svg/u1f4ab.svg

<svg viewBox="0 0 128 128" xmlns="http://www.w3.org/2000/svg">
  <g>
    <linearGradient id="SVGID_1_" gradientUnits="userSpaceOnUse" x1="93.7287" x2="52.9011" y1="106.6446" y2="81.6944">
      <stop offset="0.0969" stop-color="#FFB300"/>
      <stop offset="1" stop-color="#FFB300" stop-opacity="0"/>
    </linearGradient>
    <path d="M123.04,107.67c-4.08-4.12-9.38-9.48-14.92-15.06c-0.34,1.29-0.93,2.39-1.79,3.26 c-6.43,6.43-25.6-1.99-45.31-19.1c-2.46-2.13-16.74,20.28-14.1,22.87c3.27,3.2,26,17.86,33.78,20.73 c22.66,8.35,34.3,0.22,38.24-3.59C121.16,114.61,122.51,111.5,123.04,107.67z" fill="url(#SVGID_1_)"/>
    <linearGradient id="SVGID_2_" gradientUnits="userSpaceOnUse" x1="115.2813" x2="14.863" y1="82.3624" y2="0.8196">
      <stop offset="0" stop-color="#FFB300"/>
      <stop offset="0.7062" stop-color="#FDD835"/>
      <stop offset="0.8408" stop-color="#FDDC36"/>
      <stop offset="0.9842" stop-color="#FFE93A"/>
      <stop offset="1" stop-color="#FFEB3B"/>
    </linearGradient>
    <path d="M25.05,27.7c-1.54-4.81-2.88-11.1-0.4-13.5c7.51-7.3,31.69,4.88,54.25,27.43 c22.55,22.55,34.84,46.84,27.43,54.25c-0.07,0.07-0.16,0.13-0.23,0.2c6.13,5.82,12.2,11.6,16.1,15.31 c4.87-14.43-6.45-44.11-31.5-69.96c-4.07-4.2-16.12-16.56-26.55-23.56C54.61,11.47,44.19,5.59,32.57,4.2 C25,3.29,11.45,5.24,14.25,15.98c0.55,2.12,2.31,7.22,8.15,13.3C23.56,30.49,25.56,29.3,25.05,27.7z" fill="url(#SVGID_2_)"/>
    <g>
      <path d="M55.98,42.1l-0.75,20c-0.06,1.53,0.72,2.98,2.04,3.77l16.86,10.11c1.85,1.25,1.46,4.09-0.66,4.79 L54.79,85.5c-1.51,0.38-2.69,1.57-3.06,3.08l-4.89,19.93c-0.62,2.15-3.43,2.65-4.76,0.85L31.06,92.91 c-0.85-1.26-2.31-1.97-3.83-1.85L7.49,92.61c-2.23,0.07-3.58-2.45-2.28-4.27l12.6-16.19c0.96-1.23,1.16-2.89,0.52-4.31 l-7.88-17.57c-0.76-2.1,1.22-4.17,3.35-3.49l18.39,6.95c1.44,0.54,3.05,0.26,4.22-0.74l15.22-13 C53.39,38.62,55.96,39.87,55.98,42.1z" fill="#FDD835"/>
      <path d="M46.99,59.33l4.66-12.75c0.28-0.7,0.7-1.93,1.79-1.4c0.86,0.42,0.46,2.43,0.46,2.43l-1.05,11.54 c-0.41,4.39-1.6,5.38-3.3,5.49C47.6,64.75,45.65,62.98,46.99,59.33z" fill="#FFFF8D"/>
      <path d="M53.89,83.73l14.53-3.13c0.73-0.18,2.01-0.42,1.64-1.58c-0.29-0.91-2.34-0.8-2.34-0.8l-10.97-0.86 c-3.21-0.38-5.72,0.14-6.74,1.84C48.65,81.48,49.89,84.32,53.89,83.73z" fill="#F4B400"/>
    </g>
  </g>
</svg>

<svg viewBox="0 0 128 128" xmlns="http://www.w3.org/2000/svg">
  <defs>
    <linearGradient id="SVGID_1_" gradientUnits="userSpaceOnUse" x1="93.7287" x2="52.9011" y1="106.6446" y2="81.6944">
      <stop offset="0.0969" stop-color="#FFB300"/>
      <stop offset="1" stop-color="#FFB300" stop-opacity="0"/>
    </linearGradient>
    <linearGradient id="SVGID_2_" gradientUnits="userSpaceOnUse" x1="115.2813" x2="14.863" y1="82.3624" y2="0.8196">
      <stop offset="0" stop-color="#FFB300"/>
      <stop offset="0.7062" stop-color="#FDD835"/>
      <stop offset="0.8408" stop-color="#FDDC36"/>
      <stop offset="0.9842" stop-color="#FFE93A"/>
      <stop offset="1" stop-color="#FFEB3B"/>
    </linearGradient>
  </defs>
  <path d="M123.04,107.67 C118.96,103.55 113.66,98.19 108.12,92.61 C107.78,93.9 107.19,95 106.33,95.87 C99.9,102.3 80.73,93.88 61.02,76.77 C58.56,74.64 44.28,97.05 46.92,99.64 C50.19,102.84 72.92,117.5 80.7,120.37 C103.36,128.72 115,120.59 118.94,116.78 C121.16,114.61 122.51,111.5 123.04,107.67 Z" fill="url(#SVGID_1_)"/>
  <path d="M25.05,27.7 C23.51,22.89 22.17,16.6 24.65,14.2 C32.16,6.9 56.34,19.08 78.9,41.63 C101.45,64.18 113.74,88.47 106.33,95.88 C106.26,95.95 106.17,96.01 106.1,96.08 C112.23,101.9 118.3,107.68 122.2,111.39 C127.07,96.96 115.75,67.28 90.7,41.43 C86.63,37.23 74.58,24.87 64.15,17.87 C54.61,11.47 44.19,5.59 32.57,4.2 C25,3.29 11.45,5.24 14.25,15.98 C14.8,18.1 16.56,23.2 22.4,29.28 C23.56,30.49 25.56,29.3 25.05,27.7 Z" fill="url(#SVGID_2_)"/>
  <path d="M55.98,42.1 L55.23,62.1 C55.17,63.63 55.95,65.08 57.27,65.87 L74.13,75.98 C75.98,77.23 75.59,80.07 73.47,80.77 L54.79,85.5 C53.28,85.88 52.1,87.07 51.73,88.58 L46.84,108.51 C46.22,110.66 43.41,111.16 42.08,109.36 L31.06,92.91 C30.21,91.65 28.75,90.94 27.23,91.06 L7.49,92.61 C5.26,92.68 3.91,90.16 5.21,88.34 L17.81,72.15 C18.77,70.92 18.97,69.26 18.33,67.84 L10.45,50.27 C9.69,48.17 11.67,46.1 13.8,46.78 L32.19,53.73 C33.63,54.27 35.24,53.99 36.41,52.99 L51.63,39.99 C53.39,38.62 55.96,39.87 55.98,42.1 Z" fill="#FDD835"/>
  <path d="M46.99,59.33 L51.65,46.58 C51.93,45.88 52.35,44.65 53.44,45.18 C54.3,45.6 53.9,47.61 53.9,47.61 L52.85,59.15 C52.44,63.54 51.25,64.53 49.55,64.64 C47.6,64.75 45.65,62.98 46.99,59.33 Z" fill="#FFFF8D"/>
  <path d="M53.89,83.73 L68.42,80.6 C69.15,80.42 70.43,80.18 70.06,79.02 C69.77,78.11 67.72,78.22 67.72,78.22 L56.75,77.36 C53.54,76.98 51.03,77.5 50.01,79.2 C48.65,81.48 49.89,84.32 53.89,83.73 Z" fill="#F4B400"/>
</svg>
